src/styles/icons/experiences.svg

<svg width="24" height="24" viewBox="0 0 24 24" fill="none" xmlns="http://www.w3.org/2000/svg">
<mask id="mask0_2015_2534" style="mask-type:alpha" maskUnits="userSpaceOnUse" x="0" y="0" width="24" height="24">
<rect width="24" height="24" fill="#D9D9D9"/>
</mask>
<g mask="url(#mask0_2015_2534)">
<path d="M4.30775 20.5C3.80258 20.5 3.375 20.325 3.025 19.975C2.675 19.625 2.5 19.1974 2.5 18.6923V8.30775C2.5 7.80258 2.675 7.375 3.025 7.025C3.375 6.675 3.80258 6.5 4.30775 6.5H8.5V4.80775C8.5 4.30258 8.675 3.875 9.025 3.525C9.375 3.175 9.80258 3 10.3078 3H13.6923C14.1974 3 14.625 3.175 14.975 3.525C15.325 3.875 15.5 4.30258 15.5 4.80775V6.5H19.6923C20.1974 6.5 20.625 6.675 20.975 7.025C21.325 7.375 21.5 7.80258 21.5 8.30775V18.6923C21.5 19.1974 21.325 19.625 20.975 19.975C20.625 20.325 20.1974 20.5 19.6923 20.5H4.30775ZM10 6.5H14V4.80775C14 4.73075 13.9679 4.66025 13.9038 4.59625C13.8398 4.53208 13.7692 4.5 13.6923 4.5H10.3078C10.2308 4.5 10.1603 4.53208 10.0963 4.59625C10.0321 4.66025 10 4.73075 10 4.80775V6.5ZM20 14.75H14.5V15.596C14.5 15.8538 14.4138 16.0689 14.2413 16.2413C14.0689 16.4138 13.8538 16.5 13.596 16.5H10.404C10.1462 16.5 9.93108 16.4138 9.75875 16.2413C9.58625 16.0689 9.5 15.8538 9.5 15.596V14.75H4V18.6923C4 18.7692 4.03208 18.8398 4.09625 18.9038C4.16025 18.9679 4.23075 19 4.30775 19H19.6923C19.7693 19 19.8398 18.9679 19.9038 18.9038C19.9679 18.8398 20 18.7692 20 18.6923V14.75ZM11 15H13V13H11V15ZM4 13.25H9.5V12.404C9.5 12.1462 9.58625 11.9311 9.75875 11.7587C9.93108 11.5863 10.1462 11.5 10.404 11.5H13.596C13.8538 11.5 14.0689 11.5863 14.2413 11.7587C14.4138 11.9311 14.5 12.1462 14.5 12.404V13.25H20V8.30775C20 8.23075 19.9679 8.16025 19.9038 8.09625C19.8398 8.03208 19.7693 8 19.6923 8H4.30775C4.23075 8 4.16025 8.03208 4.09625 8.09625C4.03208 8.16025 4 8.23075 4 8.30775V13.25Z" fill="CurrentColor"/>
</g>
</svg>

<svg xmlns="http://www.w3.org/2000/svg" viewBox="0 0 24 24">
<mask id="a" width="24" height="24" x="0" y="0" maskUnits="userSpaceOnUse" style="mask-type:alpha">
<path fill="currentcolor" d="M0 0h24v24H0z"/>
</mask>
<g mask="url(#a)">
<path fill="#DE93A0" fill-rule="evenodd" d="M11.015.933c3.138.07 5.08 3.101 6.98 5.599 1.82 2.392 3.802 4.948 3.297 7.911-.531 3.124-2.994 5.476-5.82 6.91-2.91 1.478-6.394 2.286-9.277.755-2.79-1.481-3.752-4.82-4.255-7.94-.454-2.817.077-5.606 1.69-7.96C5.43 3.583 7.835.861 11.016.933Z" clip-rule="evenodd" opacity=".4"/>
<path fill="currentcolor" d="M4.308 20.5c-.505 0-.933-.175-1.283-.525a1.745 1.745 0 0 1-.525-1.283V8.308c0-.505.175-.933.525-1.283.35-.35.778-.525 1.283-.525H8.5V4.808c0-.505.175-.933.525-1.283.35-.35.778-.525 1.283-.525h3.384c.505 0 .933.175 1.283.525.35.35.525.778.525 1.283V6.5h4.192c.505 0 .933.175 1.283.525.35.35.525.778.525 1.283v10.384c0 .505-.175.933-.525 1.283-.35.35-.778.525-1.283.525H4.308ZM10 6.5h4V4.808a.294.294 0 0 0-.096-.212.294.294 0 0 0-.212-.096h-3.384a.294.294 0 0 0-.212.096.293.293 0 0 0-.096.212V6.5Zm10 8.25h-5.5v.846a.875.875 0 0 1-.259.645.875.875 0 0 1-.645.259h-3.192a.875.875 0 0 1-.645-.259.875.875 0 0 1-.259-.645v-.846H4v3.942c0 .077.032.148.096.212a.294.294 0 0 0 .212.096h15.384a.294.294 0 0 0 .212-.096.294.294 0 0 0 .096-.212V14.75ZM11 15h2v-2h-2v2Zm-7-1.75h5.5v-.846c0-.258.086-.473.259-.645a.876.876 0 0 1 .645-.259h3.192c.258 0 .473.086.645.259a.875.875 0 0 1 .259.645v.846H20V8.308a.294.294 0 0 0-.096-.212.294.294 0 0 0-.212-.096H4.308a.294.294 0 0 0-.212.096.294.294 0 0 0-.096.212v4.942Z"/></g></svg>
